svgs/regular/hamsa.svg

<svg xmlns="http://www.w3.org/2000/svg" viewBox="0 0 512 512"><!-- Font Awesome Pro 6.0.0-alpha2 by @fontawesome - https://fontawesome.com License - https://fontawesome.com/license (Commercial License) --><path d="M256.017 288C203.01 288 160.004 352 160.004 352S203.01 416 256.017 416S352.03 352 352.03 352S309.024 288 256.017 288ZM256.017 384C238.389 384 224.012 369.625 224.012 352S238.389 320 256.017 320C273.644 320 288.021 334.375 288.021 352S273.644 384 256.017 384ZM505.552 283.375C493.8 257.125 467.296 240 438.042 240H432.042V113.75C432.042 74 403.287 39.25 365.032 33C360.657 32.375 356.281 32 352.03 32C341.779 32 332.028 33.875 323.151 37.375C311.15 18.5 291.772 4.75 269.144 1C264.768 0.375 260.393 0 256.017 0C227.638 0 202.634 14.875 188.382 37.25C183.507 35.375 178.381 33.875 173.13 33C168.63 32.375 164.254 32 160.004 32C115.872 32 79.992 67.875 79.992 112V240H73.992C44.737 240 18.234 257.125 6.357 283.5C-5.77 310.625 -0.269 342.125 20.484 363.625L103.871 450.125C141.876 489.375 197.384 512 256.017 512S370.158 489.375 408.163 450.125L491.55 363.625C512.303 342.125 517.803 310.625 505.552 283.375ZM457.045 330.25L373.533 416.75C344.654 446.75 301.773 464 256.017 464S167.505 446.75 138.501 416.75L54.989 330.25C47.988 323 46.113 312.25 50.238 303.125C54.364 294 63.74 288 73.992 288H127.999V112C127.999 94.375 142.376 80 160.004 80C161.754 80 163.629 80.125 165.379 80.5C181.131 83 192.008 97.75 192.008 113.75C192.008 117.349 192.019 178.494 192.024 208.137C192.026 216.918 199.146 224 207.928 224H208.125C216.909 224 224.03 216.912 224.029 208.128C224.024 171.54 224.012 84.081 224.012 80C224.012 62.375 238.389 48 256.017 48C257.767 48 259.517 48.125 261.393 48.5C277.145 51 288.021 65.75 288.021 81.75C288.021 85.514 288.033 171.809 288.038 208.124C288.039 216.905 295.16 224 303.943 224H303.943C312.799 224 319.948 216.806 319.846 207.951C319.502 177.888 318.928 115.76 320.026 112C320.026 94.375 334.278 80 352.03 80C355.561 80 359.091 80.509 363.648 82.552C376.204 88.182 384.035 101.032 384.035 114.79L384.035 288H438.042C448.419 288 457.67 294 461.796 303.125C466.046 312.25 464.046 323 457.045 330.25Z"/></svg>

<svg xmlns="http://www.w3.org/2000/svg" viewBox="0 0 512 512"><!--! Font Awesome Pro 6.0.0-alpha3 by @fontawesome - https://fontawesome.com License - https://fontawesome.com/license (Commercial License) --><path d="M256 288c-53.01 0-96.01 64-96.01 64s42.1 64 96.01 64s96.01-64 96.01-64S309 288 256 288zM256 384c-17.63 0-32-14.38-32-32s14.37-32 32-32c17.63 0 32 14.38 32 32S273.6 384 256 384zM505.6 283.4C493.8 257.1 467.3 240 438 240H432V113.8c0-39.75-28.75-74.5-67.01-80.75C360.7 32.38 356.3 32 352 32c-10.25 0-19.99 1.875-28.86 5.375c-12-18.88-31.38-32.62-54.01-36.38C264.8 .375 260.4 0 256 0C227.6 0 202.6 14.88 188.4 37.25C183.5 35.38 178.4 33.88 173.1 33C168.6 32.38 164.3 32 160 32C115.9 32 79.99 67.88 79.99 112v128H73.99c-29.25 0-55.76 17.12-67.63 43.5c-12.13 27.12-6.626 58.63 14.13 80.13l83.39 86.5C141.9 489.4 197.4 512 256 512s114.2-22.62 152.2-61.88l83.39-86.5C512.3 342.1 517.8 310.6 505.6 283.4zM457 330.2l-83.51 86.5C344.7 446.8 301.8 464 256 464s-88.51-17.25-117.5-47.25l-83.51-86.5c-7.001-7.25-8.876-18-4.751-27.12C54.36 294 63.74 288 73.99 288H127.1V112c0-17.62 14.38-32 32-32c1.75 0 3.626 .125 5.376 .5C181.1 83 192 97.75 192 113.8l.004 94.32C192 216.8 199.2 224 207.1 224c8.785 0 16.05-7.152 16.05-15.94L224 80c0-17.62 14.38-32 32-32c1.75 0 3.5 .125 5.376 .5c15.75 2.5 26.63 17.25 26.63 33.25l-.0023 126.3C288 216.8 295.2 224 303.1 224c8.856 0 16.05-7.17 15.95-16.02C319.6 177.9 318.9 115.8 320 112c0-17.62 14.25-32 32-32c3.531 0 7.061 .5086 11.62 2.552c12.56 5.63 20.39 18.48 20.39 32.24L384 288h54.01c10.38 0 19.63 6 23.75 15.12C466 312.2 464 323 457 330.2z"/></svg>
